X:2407
T:Gus Jordan's
O:england
M:2/2
L:1/8
S:Mary Bergin, _Feadoga Stain 2_
R:reel
K:ADor
~A2eA AGEF|~G2dG AGEG|~A2ea agef|1 gedc BAGB:||2 gedc BAA2||
ea~a2 eaag|~f2eA defd|ea~a2 eaag|fdef g3f|
(3feg ab c'bag|(3fed ef g3e|dggf ~g2ag|~g2ag gedB||


